X: 22213
T: La Coccinelle
R: waltz
M: 3/4
K: Dmajor
|:FG|A2d2c2|B2A2FG|AB AF EG|F2D2FG|
A2d2c2|B2A2FG|AB AG FE|D4:|
|:FG|AFD BGE|AFD BGE|AB AF EG|F2D2FG|
AFD BGE|AFD BGE|AB AG FE|D4:|

